build/images/content/solution/icon_1.svg

<svg width="80" height="80" viewBox="0 0 80 80" fill="none" xmlns="http://www.w3.org/2000/svg">
<path d="M30 8C31.8385 8 33.659 8.36212 35.3576 9.06569C37.0561 9.76925 38.5995 10.8005 39.8995 12.1005C41.1995 13.4005 42.2308 14.9439 42.9343 16.6424C43.6379 18.341 44 20.1615 44 22C44 23.8385 43.6379 25.659 42.9343 27.3576C42.2308 29.0561 41.1995 30.5995 39.8995 31.8995C38.5995 33.1995 37.0561 34.2307 35.3576 34.9343C33.659 35.6379 31.8385 36 30 36C26.287 36 22.726 34.525 20.1005 31.8995C17.475 29.274 16 25.713 16 22C16 18.287 17.475 14.726 20.1005 12.1005C22.726 9.475 26.287 8 30 8ZM30 12C27.3478 12 24.8043 13.0536 22.9289 14.9289C21.0536 16.8043 20 19.3478 20 22C20 24.6522 21.0536 27.1957 22.9289 29.0711C24.8043 30.9464 27.3478 32 30 32C32.6522 32 35.1957 30.9464 37.0711 29.0711C38.9464 27.1957 40 24.6522 40 22C40 19.3478 38.9464 16.8043 37.0711 14.9289C35.1957 13.0536 32.6522 12 30 12Z" fill="#0034FF"/>
<path d="M58 36C60.6522 36 63.1957 34.9464 65.0711 33.0711C66.9464 31.1957 68 28.6522 68 26C68 23.3478 66.9464 20.8043 65.0711 18.9289C63.1957 17.0536 60.6522 16 58 16C55.3478 16 52.8043 17.0536 50.9289 18.9289C49.0536 20.8043 48 23.3478 48 26C48 28.6522 49.0536 31.1957 50.9289 33.0711C52.8043 34.9464 55.3478 36 58 36ZM52 26C52 24.4087 52.6321 22.8826 53.7574 21.7574C54.8826 20.6321 56.4087 20 58 20C59.5913 20 61.1174 20.6321 62.2426 21.7574C63.3679 22.8826 64 24.4087 64 26C64 27.5913 63.3679 29.1174 62.2426 30.2426C61.1174 31.3679 59.5913 32 58 32C56.4087 32 54.8826 31.3679 53.7574 30.2426C52.6321 29.1174 52 27.5913 52 26Z" fill="#0034FF"/>
<path d="M45.22 40.092C44.8162 40.0306 44.4084 39.9999 44 40H16C13.8783 40 11.8434 40.8429 10.3431 42.3431C8.84285 43.8434 8 45.8783 8 48V54C8 62.216 16.352 68 30 68C32.928 68 35.616 67.732 38.024 67.232C37.4605 66.0133 37.0106 64.7453 36.68 63.444C34.4745 63.8289 32.2388 64.015 30 64C18.316 64 12 59.628 12 54V48C12 46.9391 12.4214 45.9217 13.1716 45.1716C13.9217 44.4214 14.9391 44 16 44H41.028C42.248 42.52 43.656 41.208 45.22 40.092Z" fill="#0034FF"/>
<path fill-rule="evenodd" clip-rule="evenodd" d="M44.0816 58C44.0816 61.6914 45.548 65.2316 48.1582 67.8418C50.7684 70.452 54.3086 71.9184 58 71.9184C61.6914 71.9184 65.2316 70.452 67.8418 67.8418C70.452 65.2316 71.9184 61.6914 71.9184 58C71.9184 54.3086 70.452 50.7684 67.8418 48.1582C65.2316 45.548 61.6914 44.0816 58 44.0816C54.3086 44.0816 50.7684 45.548 48.1582 48.1582C45.548 50.7684 44.0816 54.3086 44.0816 58ZM45.2721 70.7279C41.8964 67.3523 40 62.7739 40 58C40 53.2261 41.8964 48.6477 45.2721 45.2721C48.6477 41.8964 53.2261 40 58 40C62.7739 40 67.3523 41.8964 70.7279 45.2721C74.1036 48.6477 76 53.2261 76 58C76 62.7739 74.1036 67.3523 70.7279 70.7279C67.3523 74.1036 62.7739 76 58 76C53.2261 76 48.6477 74.1036 45.2721 70.7279Z" fill="#0034FF"/>
<path d="M55.7759 66.1224V59.3335H48.9795V55.7494H55.7759V48.9795H59.3639V55.7494H66.1224V59.3335H59.3639V66.1224H55.7759Z" fill="#0034FF"/>
</svg>

<svg width="80" height="80" fill="none" xmlns="http://www.w3.org/2000/svg"><path d="M30 8a14 14 0 110 28 14 14 0 010-28zm0 4a10 10 0 100 20 10 10 0 000-20zm28 24a10 10 0 100-20 10 10 0 000 20zm-6-10a6 6 0 1112 0 6 6 0 01-12 0zm-6.78 14.092A8.102 8.102 0 0044 40H16a8 8 0 00-8 8v6c0 8.216 8.352 14 22 14 2.928 0 5.616-.268 8.024-.768a21.838 21.838 0 01-1.344-3.788A37.398 37.398 0 0130 64c-11.684 0-18-4.372-18-10v-6a4 4 0 014-4h25.028a21.955 21.955 0 014.192-3.908z" fill="#0034FF"/><path fill-rule="evenodd" clip-rule="evenodd" d="M44.082 58a13.918 13.918 0 1027.836 0 13.918 13.918 0 00-27.836 0zm1.19 12.728a18 18 0 1125.455-25.456 18 18 0 01-25.455 25.456z" fill="#0034FF"/><path d="M55.776 66.122v-6.788h-6.797v-3.585h6.797v-6.77h3.588v6.77h6.758v3.584h-6.758v6.79h-3.588z" fill="#0034FF"/></svg>
